assets/images/toolchain-column-4.svg

<svg width="42" height="35" viewBox="0 0 42 35" fill="none" xmlns="http://www.w3.org/2000/svg">
<g clip-path="url(#clip0_2229_3189)">
<path fill-rule="evenodd" clip-rule="evenodd" d="M26.728 9.67337L28.0733 9.69726L31.7285 5.91027L31.9057 4.30585C28.9039 1.52935 25.0197 -0.00340435 20.9956 0.000250662C13.4225 0.000250662 7.03068 5.33865 5.13867 12.5698C5.53771 12.2815 6.39073 12.4978 6.39073 12.4978L13.6948 11.2536C13.6948 11.2536 14.0702 10.6098 14.2604 10.6418C15.9874 8.67607 18.4345 7.5562 21 7.55725C23.1657 7.56195 25.1607 8.35469 26.7278 9.66619V9.6735H26.728V9.67337Z" fill="#EA4335"/>
<path fill-rule="evenodd" clip-rule="evenodd" d="M36.8618 12.5778C36.0131 9.33477 34.2643 6.4712 31.9038 4.29895L26.728 9.66111C28.8018 11.3948 30.132 14.0477 30.132 17.0173V17.9637C32.65 17.9637 34.6956 20.0877 34.6956 22.6916C34.6956 25.3003 32.6454 27.4195 30.132 27.4195H21.0048L20.0913 28.3714V34.0457L21.0048 34.9872H30.132C36.6826 34.9777 41.9904 29.4788 42.0003 22.6924C41.9956 18.5078 39.9659 14.8058 36.8619 12.5786V12.5779L36.8618 12.5778Z" fill="#4285F4"/>
<path fill-rule="evenodd" clip-rule="evenodd" d="M11.8684 34.9999H20.9903V27.4262H11.8684C11.2203 27.4264 10.5798 27.2821 9.99025 27.0033L8.67317 27.4214L5.01792 31.2083L4.69775 32.4865C6.7576 34.1145 9.27696 34.9959 11.8679 34.9946L11.8685 34.9999H11.8684Z" fill="#34A853"/>
<path fill-rule="evenodd" clip-rule="evenodd" d="M11.8683 10.4021C5.31769 10.4184 0.00919798 15.9173 0 22.7038C0 26.6968 1.84615 30.2471 4.70269 32.4961L9.99455 27.0136C8.35857 26.2492 7.3061 24.5632 7.30459 22.7038C7.30459 20.0952 9.35473 17.9759 11.8682 17.9759C13.7187 17.9759 15.3096 19.1317 16.0288 20.7635L21.3208 15.281C19.1506 12.3215 15.723 10.409 11.8689 10.409L11.8683 10.4021Z" fill="#FBBC05"/>
</g>
<defs>
<clipPath id="clip0_2229_3189">
<rect width="42" height="35" fill="white"/>
</clipPath>
</defs>
</svg>

<svg xmlns="http://www.w3.org/2000/svg" width="42" height="35" fill="none"><g fill-rule="evenodd" clip-path="url(#a)" clip-rule="evenodd"><path fill="#EA4335" d="m26.728 9.673 1.345.024L31.73 5.91l.177-1.604C28.904 1.529 25.02-.004 20.996 0 13.423 0 7.03 5.34 5.139 12.57c.399-.289 1.252-.072 1.252-.072l7.304-1.244s.375-.644.565-.612c1.727-1.966 4.175-3.086 6.74-3.085 2.166.005 4.16.798 5.728 2.11z"/><path fill="#4285F4" d="M36.862 12.578a17.15 17.15 0 0 0-4.958-8.28l-5.176 5.363c2.074 1.734 3.404 4.387 3.404 7.356v.947c2.518 0 4.564 2.124 4.564 4.728 0 2.608-2.05 4.727-4.564 4.727h-9.127l-.914.952v5.675l.914.941h9.127c6.55-.01 11.858-5.508 11.868-12.295-.004-4.184-2.034-7.886-5.138-10.113z"/><path fill="#34A853" d="M11.868 35h9.122v-7.574h-9.122a4.4 4.4 0 0 1-1.878-.423l-1.317.418-3.655 3.787-.32 1.279a11.55 11.55 0 0 0 7.17 2.508z"/><path fill="#FBBC05" d="M11.868 10.402C5.318 10.418.01 15.917 0 22.704c0 3.993 1.846 7.543 4.703 9.792l5.292-5.482c-1.636-.765-2.689-2.45-2.69-4.31 0-2.609 2.05-4.728 4.563-4.728 1.85 0 3.442 1.156 4.16 2.788l5.293-5.483c-2.17-2.96-5.598-4.872-9.452-4.872z"/></g><defs><clipPath id="a"><path fill="#fff" d="M0 0h42v35H0z"/></clipPath></defs></svg>
